src/components/atoms/Icon/icons/seniorlyLogo-xxLarge.svg

<?xml version="1.0" encoding="UTF-8"?>
<svg width="82px" height="44px" viewBox="0 0 82 44" version="1.1" xmlns="http://www.w3.org/2000/svg" xmlns:xlink="http://www.w3.org/1999/xlink">
    <!-- Generator: Sketch 49.3 (51167) - http://www.bohemiancoding.com/sketch -->
    <title>Logo</title>
    <desc>Created with Sketch.</desc>
    <defs>
        <linearGradient x1="50%" y1="25%" x2="50%" y2="100%" id="linearGradient-1">
            <stop stop-color="#6BC6C4" offset="0%"></stop>
            <stop stop-color="#3780AA" offset="100%"></stop>
        </linearGradient>
    </defs>
    <g id="Community-Profile" stroke="none" stroke-width="1" fill="none" fill-rule="evenodd">
        <g id="Laptop-Large---1440px" transform="translate(-26.000000, -14.000000)">
            <g id="Header">
                <g id="Logo" transform="translate(24.000000, 10.000000)">
                    <rect id="Rectangle-4" fill-opacity="0" fill="#D8D8D8" x="0" y="0" width="87" height="52"></rect>
                    <path d="M24.1721739,16.9034783 C27.826087,15.4368116 30.4278261,16.5942029 31.9773913,20.3756522 C28.6550725,21.0898551 26.0533333,19.9324638 24.1721739,16.9034783 Z M24.793913,26.22 C28.9962319,28.8153623 32.9402899,28.6495652 36.626087,25.7226087 C32.36,21.9730435 28.4127536,22.1388406 24.7843478,26.22 L24.793913,26.22 Z M40.4426087,26 C39.7884157,25.9898688 39.1588624,26.2493001 38.7017391,26.7173913 C38.2267603,27.1856405 37.967032,27.8297666 37.9843478,28.4965217 C37.9775951,29.1416657 38.237116,29.7610555 38.7017391,30.2086957 C39.1588624,30.6767869 39.7884157,30.9362182 40.4426087,30.926087 L40.5956522,30.926087 C40.866338,30.9248332 41.1336761,30.8661492 41.38,30.753913 C42.3077225,30.3831727 42.9171869,29.4860108 42.92,28.4869565 C42.9364273,27.8222234 42.6807588,27.1795974 42.2121739,26.7078261 C41.7478715,26.2338831 41.1056849,25.9770085 40.4426087,26 Z M40.4426087,4 C38.6571014,6.64 38.6571014,9.19072464 40.4426087,11.6521739 C42.9550725,8.99942029 42.9518841,6.44869565 40.4330435,4 L40.4426087,4 Z M39.486087,24.2591304 C40.837971,15.6313043 38.1884058,10.3034783 31.5373913,8.27565217 C31.377971,15.997971 34.0115942,21.3257971 39.4382609,24.2591304 L39.486087,24.2591304 Z M44.6034783,25.7226087 C48.2828986,28.6495652 52.2269565,28.8153623 56.4356522,26.22 C52.7753623,22.1515942 48.8153623,21.9857971 44.5556522,25.7226087 L44.6034783,25.7226087 Z M42.173913,24.2591304 C47.6005797,21.3194203 50.2246377,15.9915942 50.046087,8.27565217 C43.3791304,10.3130435 40.7773913,15.6313043 42.126087,24.2591304 L42.173913,24.2591304 Z M49.2521739,20.3756522 C52.5744928,21.0898551 55.1762319,19.9324638 57.0573913,16.9034783 C53.377971,15.4368116 50.7634783,16.5942029 49.213913,20.3756522 L49.2521739,20.3756522 Z M23.6269565,37.526087 C23.6289761,37.906548 23.6066114,38.2867474 23.56,38.6643478 L16.2330435,38.6643478 C16.594538,40.0625104 17.924557,40.9857958 19.3608696,40.8356522 C20.668548,40.8056801 21.9388109,40.3933435 23.0147826,39.6495652 L23.0147826,42.4330435 C21.755263,43.0990512 20.3451019,43.4285281 18.9208696,43.3895652 C15.3721739,43.3895652 12.8086957,41.18 12.8086957,37.8034783 C12.7772628,36.293041 13.3621169,34.8349007 14.4285826,33.7648261 C15.4950482,32.6947514 16.9512043,32.1049745 18.4617391,32.1313043 C19.8891722,32.0742379 21.2724572,32.6325034 22.2604178,33.6643734 C23.2483784,34.6962433 23.7460021,36.1024824 23.6269565,37.526087 Z M20.5565217,36.5695652 C20.4336651,35.4942701 19.5152033,34.6875132 18.4330435,34.7043478 C17.357175,34.6997221 16.4315862,35.464339 16.2330435,36.5217391 L20.5565217,36.5695652 Z M8.12173913,36.5695652 C6.52434783,36.1773913 5.3573913,36.2443478 5.3573913,35.4504348 C5.3573913,34.9434783 5.88347826,34.6852174 6.76347826,34.6852174 C8.18748118,34.7472498 9.57686383,35.1437482 10.8191304,35.8426087 L10.8191304,32.9730435 C9.52326268,32.4031124 8.12172066,32.1130257 6.70608696,32.1217391 C4.0373913,32.1217391 2.01913043,33.4130435 2,35.6895652 C2,37.4591304 3.20521739,38.32 5.2426087,38.8173913 C6.85913043,39.2382609 8.11217391,39.1426087 8.11217391,39.9747826 C8.11217391,40.5678261 7.56695652,40.8069565 6.64869565,40.8069565 C5.15303186,40.7437245 3.69531572,40.3169158 2.40173913,39.5634783 L2.40173913,42.4330435 C3.73595268,43.0656202 5.19134181,43.4017302 6.66782609,43.4182609 C9.43217391,43.4182609 11.4504348,42.1269565 11.5078261,39.7643478 C11.4504348,37.8991304 10.2165217,37.1147826 8.16,36.6078261 L8.12173913,36.5695652 Z M32.493913,32.16 C31.2728247,32.1801512 30.096479,32.622971 29.1652174,33.4130435 L29.1652174,32.4565217 L25.7982609,32.4565217 L25.7982609,43.2173913 L29.1269565,43.2173913 L29.1269565,35.9286957 C29.7617332,35.3916631 30.5541752,35.0760294 31.3843478,35.0295652 C31.813608,35.0030262 32.2318977,35.1717481 32.5226087,35.4886957 C32.8329014,35.9274824 32.9661292,36.4672258 32.8956522,37 L32.8956522,43.2173913 L36.2243478,43.2173913 L36.2243478,36.5217391 C36.3444948,35.3718478 36.0001172,34.2216268 35.2678261,33.3269565 C34.5376114,32.5809601 33.5378116,32.1603546 32.493913,32.16 Z M38.9313043,43.2173913 L42.26,43.2173913 L42.26,32.4086957 L38.9313043,32.4086957 L38.9313043,43.2173913 Z M67.206087,43.2173913 L70.5347826,43.2173913 L70.5347826,26.4495652 L67.206087,26.4495652 L67.206087,43.2173913 Z M80.6930435,32.4086957 L79.5547826,35.0104348 C79.0478261,36.1678261 78.5982609,37.306087 78.0913043,38.4921739 C77.6513043,37.3762319 77.1921739,36.237971 76.713913,35.0773913 L75.5373913,32.4086957 L72.046087,32.4086957 L76.4269565,41.973913 L73.6243478,48 L77.02,48 L84.0313043,32.4086957 L80.6930435,32.4086957 Z M61.7252174,33.8721739 L61.7252174,32.4086957 L58.4252174,32.4086957 L58.4252174,43.2173913 L61.753913,43.2173913 L61.753913,36.6556522 C62.4633879,35.812188 63.522054,35.342846 64.6234783,35.3834783 C64.9262603,35.3834664 65.22801,35.4187775 65.5226087,35.4886957 L65.5226087,32.3608696 C65.2946953,32.3013739 65.059887,32.2724249 64.8243478,32.2747826 C63.587087,32.2464894 62.42002,32.8480332 61.7252174,33.8721739 Z M56.34,37.793913 C56.310617,39.3418312 55.6570956,40.8122201 54.5277968,41.8712754 C53.3984981,42.9303307 51.8892247,43.4882086 50.3426087,43.4182609 C48.2355798,43.5687948 46.220896,42.5300217 45.1215066,40.726255 C44.0221172,38.9224883 44.0221172,36.6557725 45.1215066,34.8520059 C46.220896,33.0482392 48.2355798,32.0094661 50.3426087,32.16 C51.8908535,32.0900256 53.4015844,32.6491963 54.5311716,33.7103237 C55.6607588,34.771451 56.313167,36.2443201 56.34,37.793913 Z M53.0113043,37.793913 C52.9692882,36.3242046 51.7502983,35.1631659 50.2802867,35.1927287 C48.8102751,35.2222916 47.6389503,36.431401 47.6560577,37.9016103 C47.673165,39.3718196 48.8723072,40.5533463 50.3426087,40.5486957 C51.0638948,40.5437861 51.7529397,40.249177 52.2548187,39.7311084 C52.7566977,39.2130397 53.0292895,38.5149916 53.0113043,37.793913 Z" fill="url(#linearGradient-1)" fill-rule="nonzero"></path>
                </g>
            </g>
        </g>
    </g>
</svg>

<svg width="82" height="44" xmlns="http://www.w3.org/2000/svg"><defs><linearGradient x1="50%" y1="25%" x2="50%" y2="100%" id="seniorlyLogo-xxLarge-a"><stop stop-color="#6BC6C4" offset="0%"/><stop stop-color="#3780AA" offset="100%"/></linearGradient></defs><g fill="none" fill-rule="evenodd"><path fill="none" d="M-2-4h87v52H-2z"/><path d="M24.172 16.903c3.654-1.466 6.256-.309 7.805 3.473-3.322.714-5.924-.444-7.805-3.473zm.622 9.317c4.202 2.595 8.146 2.43 11.832-.497-4.266-3.75-8.213-3.584-11.842.497h.01zM40.443 26a2.382 2.382 0 0 0-1.741.717 2.41 2.41 0 0 0-.718 1.78 2.343 2.343 0 0 0 .718 1.712 2.382 2.382 0 0 0 1.74.717h.154c.27-.001.538-.06.784-.172a2.449 2.449 0 0 0 1.54-2.267 2.44 2.44 0 0 0-.708-1.78 2.363 2.363 0 0 0-1.77-.707zm0-22c-1.786 2.64-1.786 5.19 0 7.652C42.955 9 42.952 6.45 40.433 4h.01zm-.957 20.26c1.352-8.629-1.298-13.957-7.949-15.984-.159 7.722 2.475 13.05 7.901 15.983h.048zm5.117 1.463c3.68 2.927 7.624 3.092 11.833.497-3.66-4.068-7.62-4.234-11.88-.497h.047zm-2.43-1.464c5.428-2.94 8.052-8.267 7.873-15.983-6.667 2.037-9.269 7.355-7.92 15.983h.048zm7.08-3.883c3.321.714 5.923-.444 7.804-3.473-3.679-1.466-6.294-.309-7.843 3.473h.038zm-25.626 17.15c.002.38-.02.76-.067 1.138h-7.327a2.917 2.917 0 0 0 3.128 2.172 6.696 6.696 0 0 0 3.654-1.186v2.783a8.274 8.274 0 0 1-4.094.957c-3.549 0-6.112-2.21-6.112-5.587a5.557 5.557 0 0 1 5.653-5.672 4.983 4.983 0 0 1 5.165 5.395zm-3.07-.956a2.104 2.104 0 0 0-2.124-1.866 2.229 2.229 0 0 0-2.2 1.818l4.324.048zm-12.435 0c-1.598-.393-2.765-.326-2.765-1.12 0-.507.526-.765 1.406-.765a9.077 9.077 0 0 1 4.056 1.158v-2.87a10.063 10.063 0 0 0-4.113-.851c-2.669 0-4.687 1.291-4.706 3.568 0 1.77 1.205 2.63 3.243 3.127 1.616.421 2.87.326 2.87 1.158 0 .593-.546.832-1.464.832a9.211 9.211 0 0 1-4.247-1.244v2.87c1.334.633 2.79.969 4.266.985 2.764 0 4.782-1.291 4.84-3.654-.058-1.865-1.291-2.65-3.348-3.156l-.038-.038zm24.372-4.41a5.28 5.28 0 0 0-3.329 1.253v-.956h-3.367v10.76h3.329V35.93a3.826 3.826 0 0 1 2.257-.9c.43-.026.848.143 1.139.46.31.438.443.978.373 1.511v6.217h3.328v-6.695c.12-1.15-.224-2.3-.956-3.195a3.883 3.883 0 0 0-2.774-1.167zm6.437 11.057h3.329V32.41h-3.329v10.808zm28.275 0h3.329V26.45h-3.329v16.767zM80.693 32.41l-1.138 2.601c-.507 1.158-.957 2.296-1.464 3.482-.44-1.116-.899-2.254-1.377-3.415l-1.177-2.668h-3.49l4.38 9.565L73.624 48h3.396l7.011-15.591h-3.338zm-18.968 1.463V32.41h-3.3v10.808h3.329v-6.561a3.577 3.577 0 0 1 2.87-1.273c.302 0 .604.036.899.106V32.36a2.66 2.66 0 0 0-.699-.086 3.644 3.644 0 0 0-3.099 1.597zm-5.385 3.922a5.74 5.74 0 0 1-5.997 5.624 5.643 5.643 0 1 1 0-11.258 5.74 5.74 0 0 1 5.997 5.634zm-3.329 0a2.678 2.678 0 1 0-2.668 2.755 2.688 2.688 0 0 0 2.668-2.755z" fill="url(#seniorlyLogo-xxLarge-a)" fill-rule="nonzero" transform="translate(-2 -4)"/></g></svg>
